dist/svg/cut.svg

<!-- Generated by Trend Micro Style Portal -->
<svg version="1.1" xmlns="http://www.w3.org/2000/svg" width="16" height="16" viewBox="0 0 16 16">
  <title>cut</title>
  <path fill="rgb(34,34,34)" d="M13 4c-1.657 0-3 1.343-3 3v0h-1v-5l-2-2v7h-7l2 2h5v1c-0.005-0-0.012-0-0.018-0-1.657 0-3 1.343-3 3s1.343 3 3 3c1.657 0 3-1.343 3-3 0-0.879-0.378-1.669-0.98-2.218l-0.002-0.002v-1.78h1.78c0.552 0.615 1.349 1 2.236 1 1.657 0 3-1.343 3-3s-1.343-3-3-3c-0.006 0-0.011 0-0.017 0h0.001zM7 14.5c-0.828 0-1.5-0.672-1.5-1.5s0.672-1.5 1.5-1.5c0.828 0 1.5 0.672 1.5 1.5v0c0 0.828-0.672 1.5-1.5 1.5v0zM13 8.5c-0.828 0-1.5-0.672-1.5-1.5s0.672-1.5 1.5-1.5c0.828 0 1.5 0.672 1.5 1.5v0c0 0.828-0.672 1.5-1.5 1.5v0zM2.29 3l-1.29-1.29 0.71-0.71 1.29 1.29zM5.29 6l-1.29-1.29 0.71-0.71 1.29 1.29zM11.29 12l-1.29-1.29 0.71-0.71 1.29 1.29zM14.29 15l-1.29-1.29 0.71-0.71 1.29 1.29z"></path>
</svg>

<svg width="17" height="16" viewBox="0 0 17 16" fill="rgb(34, 34, 34)" xmlns="http://www.w3.org/2000/svg"><title>cut</title><path d="M13 4C11.343 4 10 5.343 10 7H9V2L7 0V7H0L2 9H7V10C6.995 10 6.988 10 6.982 10C5.325 10 3.982 11.343 3.982 13C3.982 14.657 5.325 16 6.982 16C8.639 16 9.982 14.657 9.982 13C9.982 12.121 9.604 11.331 9.002 10.782L9 10.78V9H10.78C11.332 9.615 12.129 10 13.016 10C14.673 10 16.016 8.657 16.016 7C16.016 5.343 14.673 4 13.016 4C13.01 4 13.005 4 12.999 4H13ZM7 14.5C6.172 14.5 5.5 13.828 5.5 13C5.5 12.172 6.172 11.5 7 11.5C7.828 11.5 8.5 12.172 8.5 13C8.5 13.828 7.828 14.5 7 14.5ZM13 8.5C12.172 8.5 11.5 7.828 11.5 7C11.5 6.172 12.172 5.5 13 5.5C13.828 5.5 14.5 6.172 14.5 7C14.5 7.828 13.828 8.5 13 8.5ZM2.29 3L1 1.71L1.71 1L3 2.29L2.29 3ZM5.29 6L4 4.71L4.71 4L6 5.29L5.29 6ZM11.29 12L10 10.71L10.71 10L12 11.29L11.29 12ZM14.29 15L13 13.71L13.71 13L15 14.29L14.29 15Z" fill="rgb(34, 34, 34)" fill-opacity="1.00"/></svg>
